assets/img/tradepage/footer/Akbank_Logo.svg

<svg xmlns="http://www.w3.org/2000/svg" width="76" height="10" viewBox="0 0 76 10">
    <defs>
        <style>
            .cls-1{fill:#cb0a19}
        </style>
    </defs>
    <g id="Akbank_Logo">
        <path id="Akbank_Logo-2" d="M47.566 10l-.795-1.681H41.5l-.785 1.646H37.4L42.04.058h4.16L50.736 10zM42.7 5.782h2.836l-1.426-2.92-.01-.024zM31.527 10h-5.172c-.01-3.314-.01-6.64-.02-9.966h8.608a2.219 2.219 0 0 1 1.8 1.716 3.6 3.6 0 0 1-.638 3.2 2.737 2.737 0 0 1 .923 2.214v.394a4.4 4.4 0 0 1-.059.51C36.778 9.166 36.042 10 35.454 10zm-2.473-3.812v1.043h4.6a.511.511 0 0 0 .471-.533.5.5 0 0 0-.471-.522h-2.13zM31.527 2.6l-2.473.012V3.65h4.485A.5.5 0 0 0 34 3.117a.5.5 0 0 0-.461-.533zM10.16 10l-.786-1.681H4.1l-.782 1.647H0L4.643.058H8.8L13.34 10zM5.3 5.782h2.827l-1.413-2.92-.014-.023zm53.257 4.2l-4.288-6.691v6.675h-3.033V.058l4.653-.023L60.266 7V.058h2.994v9.919zm13.134 0L68.04 6.419h-1v3.557h-2.994V.034l2.886.024v3.465h1.138L71.446 0h4.231l-4.8 5.065L76 9.976zm-50.255 0l-3.65-3.563h-1v3.557h-3V.034l2.886.024v3.465h1.149L21.191 0h4.231l-4.81 5.065 5.133 4.912z" class="cls-1" data-name="Akbank_Logo"/>
    </g>
</svg>

<svg xmlns="http://www.w3.org/2000/svg" width="76" height="10" viewBox="0 0 76 10">
  <defs>
    <style>
      .cls-1 {
        fill: #758ca3;
      }
    </style>
  </defs>
  <g id="Akbank_Logo" transform="translate(0 0)">
    <path id="Akbank_Logo-2" data-name="Akbank_Logo" class="cls-1" d="M47.566,10l-.795-1.681H41.5l-.785,1.646H37.4L42.04.058H46.2L50.736,10ZM42.7,5.782h2.836L44.11,2.862l-.01-.024ZM31.527,10H26.355c-.01-3.314-.01-6.64-.02-9.966h8.608a2.219,2.219,0,0,1,1.8,1.716,3.6,3.6,0,0,1-.638,3.2,2.737,2.737,0,0,1,.923,2.214v.394a4.4,4.4,0,0,1-.059.51C36.778,9.166,36.042,10,35.454,10ZM29.054,6.188V7.231h4.6a.511.511,0,0,0,.471-.533.5.5,0,0,0-.471-.522h-2.13ZM31.527,2.6l-2.473.012V3.65h4.485A.5.5,0,0,0,34,3.117a.5.5,0,0,0-.461-.533ZM10.16,10,9.374,8.319H4.1L3.318,9.966H0L4.643.058H8.8L13.34,10ZM5.3,5.782H8.127L6.714,2.862,6.7,2.839Zm53.257,4.2L54.269,3.291V9.966H51.236V.058L55.889.035,60.266,7V.058H63.26V9.977Zm13.134,0L68.04,6.419h-1V9.976H64.046V.034l2.886.024V3.523H68.07L71.446,0h4.231l-4.8,5.065L76,9.976Zm-50.255,0L17.786,6.419h-1V9.976h-3V.034l2.886.024V3.523h1.149L21.191,0h4.231l-4.81,5.065,5.133,4.912Z" transform="translate(0 0)"/>
  </g>
</svg>
